X:1
T:Strait Gate, SM
T:Strait Gate, SM
T:Harmonia Sacra, 19th Century
T:Public Domain Courtesy of the Cyber Hymnal™
C:Harmonia Sacra, 19th Century
Z:Public Domain
Z:Courtesy of the Cyber Hymnal™
%%score ( 1 2 ) ( 3 4 )
L:1/8
Q:1/4=104
M:2/4
K:D
V:1 treble 
V:2 treble 
V:3 bass 
V:4 bass 
V:1
 F2 | [FB]2 [Fd]2 | (cB) ^A2 | !fermata![FB]2 [Ac]2 | [Ad]2 [Af]2 | ([ce]>[Bd]) [Ac]2 | %6
 !fermata![Fd]2 [Bf]2 | (e>d) [Ac]2 | d2 [Ac]2 | B2 (e>d) | !fermata![Fc]2 [^Ac]2 | [Bf]2 B>[Ac] | %12
 [Bd]2 [Fc]2 | !fermata![FB]2 |] %14
V:2
 F2 | x4 | ^A2 A2 | x4 | x4 | x4 | x4 | B2 x2 | d2 x2 | B2 B2 | x4 | x2 B3/2 x/ | x4 | x2 |] %14
V:3
 F,2 | [B,,B,]2 [B,,F]2 | [E,E]2 [F,D]2 | [B,,F]2 [F,F]2 | [D,F]2 [D,D]2 | (A,>B,) [F,C]2 | %6
 !fermata![D,D]2 [D,D]2 | [E,E]2 [F,F]2 | [D,F]2 [F,F]2 | [G,C]2 [E,E]2 | !fermata![F,F]2 [F,F]2 | %11
 [D,F]2 [E,E]2 | (DE) [F,E]2 | !fermata![B,,F]2 |] %14
V:4
 F,2 | x4 | x4 | x4 | x4 | E,2 x2 | x4 | x4 | x4 | x4 | x4 | x4 | F,2 x2 | x2 |] %14

